assets/icons/qvision/auto_delete.svg

<svg xmlns="http://www.w3.org/2000/svg" enable-background="new 0 0 24 24" height="24" viewBox="0 0 24 24" width="24"><g><rect fill="none" height="24" width="24"/></g><g><g><polygon points="15,2 11.5,2 10.5,1 5.5,1 4.5,2 1,2 1,4 15,4"/><path d="M16,9c-0.7,0-1.37,0.1-2,0.29V5H2v12c0,1.1,0.9,2,2,2h5.68c1.12,2.36,3.53,4,6.32,4c3.87,0,7-3.13,7-7 C23,12.13,19.87,9,16,9z M16,21c-2.76,0-5-2.24-5-5s2.24-5,5-5s5,2.24,5,5S18.76,21,16,21z"/><polygon points="16.5,12 15,12 15,17 18.6,19.1 19.4,17.9 16.5,16.2"/></g></g></svg>

<svg width="24" height="24" viewBox="0 0 24 24" fill="none" xmlns="http://www.w3.org/2000/svg">
<g clip-path="url(#clip0_147_1285)">
<path d="M15 2H11.5L10.5 1H5.5L4.5 2H1V4H15V2Z" fill="#323232"/>
<path d="M16 9C15.3 9 14.63 9.1 14 9.29V5H2V17C2 18.1 2.9 19 4 19H9.68C10.8 21.36 13.21 23 16 23C19.87 23 23 19.87 23 16C23 12.13 19.87 9 16 9ZM16 21C13.24 21 11 18.76 11 16C11 13.24 13.24 11 16 11C18.76 11 21 13.24 21 16C21 18.76 18.76 21 16 21Z" fill="#323232"/>
<path d="M16.5 12H15V17L18.6 19.1L19.4 17.9L16.5 16.2V12Z" fill="#323232"/>
</g>
<defs>
<clipPath id="clip0_147_1285">
<rect width="24" height="24" fill="white"/>
</clipPath>
</defs>
</svg>
